X:1
T:Nobody Told Me of Jesus
T:Nobody Told Me of Jesus
T:Charles Hutchinson Gabriel
T:Carrie Elizabeth Ellis Breck, 1908
T:Public Domain Courtesy of the Cyber Hymnal™
T:Public Domain Courtesy of the Cyber Hymnal™
C:Charles Hutchinson Gabriel
Z:Public Domain
Z:Courtesy of the Cyber Hymnal™
%%score ( 1 2 ) ( 3 4 )
L:1/8
Q:1/4=100
M:4/4
K:Ab
V:1 treble 
V:2 treble 
V:3 bass 
V:4 bass 
V:1
 [CE][CA] | [Ec]2 [=D=B][Ec] [CA]2 [_D_B][Ec] | [DB]2 [D=A][DB] [DF]2 [=D_A]2 | %3
w: 1.~Would you|care if some friend you have|met day by day Should|
w: 2.~Care you|not if one soul of the|child- ren of men Should|
w: 3.~Would you|care if your crown should be|star- less- ly dim, Be-|
w: 4.~Oh, be|si- lent no long- er! but|car- ry the news, And|
 [_DG]2 [DG][DF] [DE]2 [DG][Fd] | [Ec]4 [Ec]2 [CE][CA] | [Ec]2 [=D=B][Ec] [CA]2 [_D_B][Ec] | %6
w: ne- ver be told a- bout|Je- sus? Are you|will- ing that he in the|
w: ne- ver be brought un- to|Je- sus? Or could|say in that day when He|
w: cause you led no one to|Je- sus? Make it|true that some heart shall not|
w: tell of the cru- ci- fied|Je- sus! Tell it!|Tell it so ear- nest- ly|
 [Fd]2 [Fc][Fd] [DF]2 [EG][FA] | E2 [Ed]2 [Ec]2 [EA][EA] | [DB]4 [CA]2 z2 || %9
w: judg- ment should say: “No one|ev- er told me of|Je- sus.”|
w: com- eth a- gain, “No one|ev- er told me of|Je- sus.”|
w: an- swer to Him: “No one|ev- er told me of|Je- sus.”|
w: none can re- fuse To ac-|cept this won- der- ful|Je- sus.|
"^Refrain" [Ee]2 [Ec][DB] [CA]2 [DB][Ec] | [DB]4 [DF]4 | [Gd]2 [EB][EA] [DG]2 [DF][DG] | %12
w: |||
w: |||
w: No- bo- dy told me of|Je- sus;|No- bo- dy told me of|
w: |||
 [DF]4 [CE]3 [CE] | [Ee]2 [Ee][Ee] [Ec]2 | [E=A][FA] | [FB]2 [Fc][Fc] !fermata![Fd]2 [=DF][DF] | %16
w: ||||
w: ||||
w: Je- sus; So|ma- ny I met—|but they|seemed to for- get That I|
w: ||||
 [_DG]2 [DG][DG] [Fd]2 [Ec][CA] | [DB]4 [CA]2 |] %18
w: ||
w: ||
w: want- ed the sto- ry of|Je- sus.|
w: ||
V:2
 x2 | x8 | x8 | x8 | x8 | x8 | x8 | E2 x6 | x8 || x8 | x8 | x8 | x8 | x6 | x2 | x8 | x8 | x6 |] %18
V:3
 [A,,A,][A,,A,] | [A,,A,]2 [A,,A,][A,,A,] [A,,E,]2 [A,,E,][A,,A,] | %2
 [D,F,]2 [D,F,][D,F,] [D,B,]2 [B,,B,]2 | [E,B,]2 [E,B,][E,A,] [E,G,]2 [E,B,][E,G,] | %4
 A,4 A,2 [A,,A,][A,,A,] | [A,,A,]2 [A,,A,][A,,A,] [A,,A,]2 A,A, | %6
 [D,A,]2 [D,A,][D,A,] [D,A,]2 [D,A,][D,A,] | [C,A,]2 [B,,G,]2 [A,,A,]2 [C,A,][C,A,] | %8
 [E,G,]4 [A,,A,]2 z2 || [A,,C]2 [A,,A,][A,,A,] [A,,E,]2 [A,,A,][A,,A,] | [D,F,]4 [D,B,]4 | %11
 [E,B,]2 [E,D][E,C] [E,B,]2 [E,G,][E,G,] | [A,,A,]4 [A,,A,]3 [A,,A,] | [A,C]2 [A,C][A,C] A,2 | %14
 [F,C][E,C] | [D,B,]2 [C,=A,][C,A,] [B,,B,]2 [B,,B,][B,,B,] | %16
 [E,B,]2 [E,B,][E,B,] [E,G,]2 [E,A,][E,A,] | [E,G,]4 [A,,A,]2 |] %18
V:4
 x2 | x8 | x8 | x8 | A,4 A,2 x2 | x6 A,A, | x8 | x8 | x8 || x8 | x8 | x8 | x8 | x4 A,2 | x2 | x8 | %16
 x8 | x6 |] %18

